images/icons/vectorwhite.svg

<svg width="20" height="20" viewBox="0 0 20 20" fill="none" xmlns="http://www.w3.org/2000/svg">
<path d="M10 2C5.582 2 2 5.582 2 10C2 14.418 5.582 18 10 18C14.418 18 18 14.418 18 10C18 5.582 14.418 2 10 2ZM14 9.6666C14 10.2189 13.5523 10.6666 13 10.6666H11.6666C11.1143 10.6666 10.6666 11.1143 10.6666 11.6666V13.3334C10.6666 13.7016 10.3682 14 10 14C9.63185 14 9.3334 13.7016 9.3334 13.3334V11.6666C9.3334 11.1143 8.88568 10.6666 8.3334 10.6666C7.78112 10.6666 7.3334 11.1143 7.3334 11.6666V13.3333C7.3334 13.7015 7.03491 14 6.6667 14C6.29849 14 6 13.7015 6 13.3333V6.6667C6 6.29849 6.29849 6 6.6667 6C7.03491 6 7.3334 6.29849 7.3334 6.6667V8.3334C7.3334 8.88568 7.78112 9.3334 8.3334 9.3334C8.88568 9.3334 9.3334 8.88568 9.3334 8.3334V6.6666C9.3334 6.29845 9.63185 6 10 6C10.3682 6 10.6666 6.29845 10.6666 6.6666V8.3334C10.6666 8.88568 11.1143 9.3334 11.6666 9.3334C12.2189 9.3334 12.6666 8.88568 12.6666 8.3334V6.6667C12.6666 6.29849 12.9651 6 13.3333 6C13.7015 6 14 6.29849 14 6.6667V9.6666Z" fill="white"/>
</svg>

<svg width="20" height="20" fill="none" xmlns="http://www.w3.org/2000/svg"><path d="M10 2a8 8 0 1 0 0 16 8 8 0 0 0 0-16Zm4 7.667a1 1 0 0 1-1 1h-1.333a1 1 0 0 0-1 1v1.666a.667.667 0 1 1-1.334 0v-1.666a1 1 0 1 0-2 0v1.666a.667.667 0 0 1-1.333 0V6.667a.667.667 0 1 1 1.333 0v1.666a1 1 0 0 0 2 0V6.667a.667.667 0 0 1 1.334 0v1.666a1 1 0 1 0 2 0V6.667a.667.667 0 0 1 1.333 0v3Z" fill="#fff"/></svg>
